X: 18471
T: Hut On Staffin Island, The
R: hornpipe
M: 4/4
K: Dmajor
|:"A7"A,B,DE "D"D3E|"D"FDFA "Bm"d2 cA|"G"B3d "F#m"BAFD|"Em"E2 "F#m"FE "G"DB,B,D|
"A7"A,B,DE "D"D3E|FE (3FGA "Bm"dDcD|"G"B3d "F#m"BAFD|1 "Em"E2 "F#m"FE "G"D3B,:|2 "A7"E2 "D/F#"FE "D"D2 FA||
"Bm":d4 d2 ed|"F#m"cBcd c2 BA|"G"B2 GA BcdB|"A"AFEF "D"D4|
"Bm"d4 d2 ed|"F#m"cBcd c2 BA|"G"B2 GA B2 dB|"Em"AFEF "G"DB,B,D|
"A7"A,B,DE "D"D3E|"D"FD "A"(3FGA "Bm"d2 "F#m"cA|"G"B3d "F#m"BAFD|"Em"E2 "F#m"FE "D"D4||

